flaticon/essential/smartphone-4.svg

<svg xmlns="http://www.w3.org/2000/svg" width="32" height="32" viewBox="0 0 24 24">
    <path d="M 14.199219 12.398438 C 13.980469 12.398438 13.800781 12.578125 13.800781 12.796875 L 13.800781 18.398438 L 1.800781 18.398438 L 1.800781 3.199219 L 13.800781 3.199219 L 13.800781 8.800781 C 13.800781 9.019531 13.980469 9.199219 14.199219 9.199219 C 14.421875 9.199219 14.601562 9.019531 14.601562 8.800781 L 14.601562 1.761719 C 14.601562 0.789062 13.808594 0 12.839844 0 L 2.761719 0 C 1.789062 0 1 0.789062 1 1.761719 L 1 22.238281 C 1 23.210938 1.789062 24 2.761719 24 L 12.839844 24 C 13.808594 24 14.601562 23.210938 14.601562 22.238281 L 14.601562 12.796875 C 14.601562 12.578125 14.421875 12.398438 14.199219 12.398438 Z M 2.761719 0.800781 L 12.839844 0.800781 C 13.367188 0.800781 13.800781 1.230469 13.800781 1.761719 L 13.800781 2.398438 L 1.800781 2.398438 L 1.800781 1.761719 C 1.800781 1.230469 2.230469 0.800781 2.761719 0.800781 Z M 12.839844 23.199219 L 2.761719 23.199219 C 2.230469 23.199219 1.800781 22.769531 1.800781 22.238281 L 1.800781 19.199219 L 13.800781 19.199219 L 13.800781 22.238281 C 13.800781 22.769531 13.367188 23.199219 12.839844 23.199219 Z M 12.839844 23.199219"/>
    <path d="M7.800781 19.601562C6.917969 19.601562 6.199219 20.316406 6.199219 21.199219 6.199219 22.082031 6.917969 22.800781 7.800781 22.800781 8.683594 22.800781 9.402344 22.082031 9.402344 21.199219 9.402344 20.316406 8.683594 19.601562 7.800781 19.601562zM7.800781 22C7.359375 22 7 21.640625 7 21.199219 7 20.757812 7.359375 20.398438 7.800781 20.398438 8.242188 20.398438 8.601562 20.757812 8.601562 21.199219 8.601562 21.640625 8.242188 22 7.800781 22zM6.199219 2L7.800781 2C8.019531 2 8.199219 1.820312 8.199219 1.601562 8.199219 1.378906 8.019531 1.199219 7.800781 1.199219L6.199219 1.199219C5.980469 1.199219 5.800781 1.378906 5.800781 1.601562 5.800781 1.820312 5.980469 2 6.199219 2zM9 2L9.402344 2C9.621094 2 9.800781 1.820312 9.800781 1.601562 9.800781 1.378906 9.621094 1.199219 9.402344 1.199219L9 1.199219C8.78125 1.199219 8.601562 1.378906 8.601562 1.601562 8.601562 1.820312 8.777344 2 9 2zM22.96875 10.953125C23.011719 10.855469 23.011719 10.746094 22.96875 10.648438 22.949219 10.597656 22.917969 10.554688 22.882812 10.515625L18.082031 5.71875C17.925781 5.5625 17.675781 5.5625 17.519531 5.71875 17.359375 5.875 17.359375 6.125 17.519531 6.28125L21.636719 10.398438 7.402344 10.398438C7.179688 10.398438 7 10.578125 7 10.800781 7 11.019531 7.179688 11.199219 7.402344 11.199219L21.636719 11.199219 17.519531 15.316406C17.359375 15.472656 17.359375 15.726562 17.519531 15.882812 17.59375 15.960938 17.699219 16 17.800781 16 17.902344 16 18.003906 15.960938 18.082031 15.882812L22.882812 11.082031C22.917969 11.046875 22.949219 11.003906 22.96875 10.953125zM22.96875 10.953125"/>
</svg>

<svg xmlns="http://www.w3.org/2000/svg" width="32" height="32" viewBox="0 0 24 24">
    <path d="M14.2 12.398a.4.4 0 0 0-.4.399v5.601h-12V3.2h12v5.602a.4.4 0 0 0 .802 0V1.76C14.602.79 13.809 0 12.84 0H2.762C1.789 0 1 .79 1 1.762v20.476C1 23.211 1.79 24 2.762 24H12.84c.969 0 1.762-.79 1.762-1.762v-9.441a.401.401 0 0 0-.403-.399zM2.761.801H12.84c.527 0 .96.43.96.96v.637h-12v-.636c0-.532.43-.961.962-.961zM12.84 23.199H2.762a.96.96 0 0 1-.961-.96v-3.04h12v3.04c0 .53-.434.96-.961.96zm0 0"/>
    <path d="M7.8 19.602a1.6 1.6 0 0 0-1.6 1.597c0 .883.718 1.602 1.6 1.602a1.6 1.6 0 0 0 0-3.2zM7.8 22a.802.802 0 0 1 0-1.602.802.802 0 0 1 0 1.602zm0 0M6.2 2h1.6a.4.4 0 0 0 0-.8H6.2a.401.401 0 0 0 0 .8zm0 0M9 2h.402a.4.4 0 0 0 0-.8H9A.401.401 0 0 0 9 2zm0 0M22.969 10.953a.376.376 0 0 0 0-.305.432.432 0 0 0-.086-.132l-4.801-4.797a.396.396 0 0 0-.562 0 .39.39 0 0 0 0 .562l4.117 4.117H7.402a.401.401 0 0 0 0 .8l14.235.001-4.117 4.117a.394.394 0 0 0 0 .567.396.396 0 0 0 .563 0l4.8-4.801a.373.373 0 0 0 .086-.129zm0 0"/>
</svg>
